X:1
T:HUMORESQUE
T:HUMORESQUE
T:A.Dvorak
T:All Sheet Lab
C:A.Dvorak
%%score 1 2
L:1/8
Q:1/4=50
M:2/4
K:G
V:1 treble nm="Violin" snm="Vln."
V:2 bass nm="Cello" snm="Vc."
V:1
 G/>A/G/>A/ B/>d/e/>d/ | g/>f/a/>g/ f/>a/g/>e/ | d/>d/e/>d/ g/>e/d/>B/ | A3 z | %4
 G/>A/G/>A/ B/>d/e/>d/ | g/>f/a/>g/ f/>a/g/>e/ | d/>d/g/>G/ Ad | G3 z |"^pizz." G,D GB | CE Gc | %10
 G,D GB | z"^arco." G F z |"^pizz." G,D GB | CE Gc |"^arco." Be/_e/ d2 | B3 z | Bb/>a/ ag | %17
 gf/>e/ ed | dc/>e/ dc | B/A/ G2 G/A/ | Bb/>a/ ag | gf/>e/ ed | d/c/d/e/ B/A/B/d/4c/4 | B _B2 A | %24
 G/>A/G/>A/ B/>d/e/>d/ | g/>f/a/>g/ f/>a/g/>e/ | d/>d/e/>d/ g/>e/d/>B/ | A3 z | %28
 G/>A/G/>A/ B/>d/e/>d/ | g/>f/a/>g/ f/>a/g/>e/ | d/>d/_b/>d/ ^c/>b/a/>d/ | g3 z || %32
[K:Bb] G/A/B/A/ BA/G/ | FC D<F | G/A/B/A/ BA/G/ | Fd B2 | G/A/B/A/ BA/G/ | FC D<F | %38
 G/A/B/A/ BA/G/ | Ge d2 | g/a/b/a/ ba/g/ | f/a/4g/4f/c/ d/4g/4f3/2 | g/a/b/a/ c'/b/a/g/ | %43
 fc' d'/4c'/4b3/2 | g/a/b/a/ c'/b/a/g/ | f/g/f/c/ d<f | g/a/b/a/ ba/g/ | gf'/e'/ !fermata!d'2 || %48
[K:G] G/>A/G/>A/ B/>d/e/>d/ | g/>f/a/>g/ f/>a/g/>e/ | d/>d/e/>d/ g/>e/d/>B/ | A3 z | %52
 G/>A/G/>A/ B/>d/e/>d/ | g/>f/a/>g/ f/>a/g/>e/ | d/>d/_b/>d/ ^c/>b/a/>d/ | g3 z | Bb/>a/ ag | %57
 gf/>e/ ed | dc/>e/ dc | B/A/ G2 G/A/ | Bb/>a/ ag | gf/>e/ ed | d/c/d/e/ B/A/B/d/4c/4 | %63
 !tenuto!B!tenuto!d !fermata!g2 |] %64
V:2
"^pizz." G,,D, G,B, | C,E, G,C | G,,D, G,B, | z"^arco." D,2 z |"^pizz." G,,D, G,B, | C,E, G,C | %6
"^arco." B,,E,/_E,/ D,2 | G,,/>D,/G,/>D,/ G,,2 | G,/>A,/G,/>A,/ B,/>D/E/>D/ | %9
 G/>F/A/>G/ F/>A/G/>E/ | D/>D/E/>D/ G/>E/D/>B,/ | A,3 z | G,/>A,/G,/>A,/ B,/>D/E/>D/ | %13
 G/>F/A/>G/ F/>A/G/>E/ | D/>D/G/>G,/ A,D | G,3 z | G,D/G/ F/B,/E | z/ C,/G,/E/ ^G/E/B, | %18
 A,,E,/C/ DE/F/ | G/D/ B,3 | G,D/G/ F/B,/E | z/ C,/G,/E/ ^G/E/B, | A,,E,/C/ D3/2 z/ | %23
"^pizz." ^D,E, A,,=D, | G,,D, G,B, | C,E, G,C | G,,D, G,B, | z"^arco." D,2 z |"^pizz." G,,D, G,B, | %29
 C,E, G,C | B,,E, A,,D, | G,D, G,,2 ||[K:Bb]"^arco." G,2 E,2 | F,2 B,,2 | G,2 E,2 | %35
 C,F, B,,/C,/D,/F,/ | G,2 E,2 | F,2 B,,D,/F,/ | G,2 E,2 | A,,2 D,2 | G,2 E,2 | F,2 B,,D,/F,/ | %42
 G,2 E,2 | F,2 B,/F,/D,/B,,/ | G,2 E,2 | F,2 B,,D,/F,/ | G,2 E,2 | A,,B,,/C,/ !fermata!D,2 || %48
[K:G]"^pizz." G,,D, G,B, | C,E, G,C | G,,D, G,B, | z"^arco." D,2 z |"^pizz." G,,D, G,B, | %53
 C,E, G,C |"^arco." B,,E, A,,D, | G,D, G,,2 | G,D/G/ F/B,/E | z/ C,/G,/E/ ^G/E/B, | %58
 A,,E,/C/ DE/F/ | G/D/ B,3 | G,D/G/ F/B,/E | z/ C,/G,/E/ ^G/E/B, | A,,E,/C/ D2 | %63
 !tenuto!G,!tenuto!D, !fermata!G,,2 |] %64

